X:10574
T:Mazurka Gentiane
R:Mazurka
M:3/4
L:1/8
K:C
G2|Gc cB c2|Ge ed e2|fe dc Bc|dc BA G2|\
Gc cB c2|Ge ed e2|fe dc Bd|c2c2:|
|:ef|g^f ga g=f|e2 c2 de|fe fg ag|d4 ef|\
g^f ga g=f|e2 c2 de|fe dc Bd|c2c2:|
